icons/1_Primary/Yahoo.svg

<svg width="1024" height="1024" fill="none" xmlns="http://www.w3.org/2000/svg"><g clip-path="url(#a)"><path d="M512 1024c282.77 0 512-229.23 512-512S794.77 0 512 0 0 229.23 0 512s229.23 512 512 512Z" fill="#8C72BD"/><path d="M256 390.61h101.45l59.06 151 59.83-151H575L426.38 748.15H327l40.66-94.74L256 390.61Zm332.7 143.54a61.357 61.357 0 0 0-60.169 73.34 61.357 61.357 0 0 0 48.218 48.203 61.368 61.368 0 0 0 62.986-26.102 61.366 61.366 0 0 0-7.644-77.477A61.352 61.352 0 0 0 588.7 534.15ZM768 275.85H657.83l-98.09 235.67h110.55L768 275.85Z" fill="#fff"/></g><defs><clipPath id="a"><path fill="#fff" d="M0 0h1024v1024H0z"/></clipPath></defs></svg>

<svg width="1024" height="1024" viewBox="0 0 1024 1024" fill="none" xmlns="http://www.w3.org/2000/svg">
<g clip-path="url(#clip0_2_3993)">
<path d="M512 1024C794.77 1024 1024 794.77 1024 512C1024 229.23 794.77 0 512 0C229.23 0 0 229.23 0 512C0 794.77 229.23 1024 512 1024Z" fill="#8C72BD"/>
<path d="M256 390.61H357.45L416.51 541.61L476.34 390.61H575L426.38 748.15H327L367.66 653.41L256 390.61ZM588.7 534.15C576.564 534.152 564.701 537.752 554.612 544.496C544.522 551.24 536.659 560.825 532.017 572.037C527.375 583.25 526.161 595.588 528.531 607.49C530.9 619.392 536.746 630.325 545.329 638.905C553.912 647.485 564.846 653.327 576.749 655.693C588.652 658.058 600.989 656.841 612.201 652.195C623.412 647.549 632.994 639.683 639.735 629.591C646.475 619.499 650.072 607.635 650.07 595.5C650.069 587.442 648.48 579.463 645.395 572.019C642.311 564.575 637.79 557.811 632.091 552.114C626.392 546.418 619.627 541.899 612.182 538.816C604.737 535.734 596.758 534.148 588.7 534.15ZM768 275.85H657.83L559.74 511.52H670.29L768 275.85Z" fill="white"/>
</g>
<defs>
<clipPath id="clip0_2_3993">
<rect width="1024" height="1024" fill="white"/>
</clipPath>
</defs>
</svg>
